images/twitter-icon-black.svg

<svg width="16" height="14" viewBox="0 0 16 14" fill="none" xmlns="http://www.w3.org/2000/svg">
<path fill-rule="evenodd" clip-rule="evenodd" d="M16 1.9118C15.4121 2.17953 14.7791 2.36058 14.1152 2.44148C14.7932 2.02544 15.3135 1.36576 15.5586 0.579913C14.9238 0.96513 14.2222 1.24538 13.4728 1.39561C12.8755 0.741704 12.0218 0.333374 11.0771 0.333374C9.26548 0.333374 7.79574 1.84054 7.79574 3.69921C7.79574 3.96308 7.82391 4.21925 7.88026 4.46579C5.15208 4.32519 2.73381 2.98656 1.11381 0.947796C0.831132 1.44665 0.669601 2.02544 0.669601 2.64179C0.669601 3.809 1.24905 4.83945 2.12995 5.44328C1.59277 5.42691 1.08564 5.27379 0.642367 5.02339V5.06481C0.642367 6.6962 1.77402 8.05698 3.27663 8.36515C3.00147 8.44412 2.71128 8.48361 2.41169 8.48361C2.20039 8.48361 1.99378 8.46338 1.79374 8.4239C2.21166 9.7606 3.42314 10.7342 4.86001 10.7602C3.73681 11.6636 2.3206 12.2019 0.783237 12.2019C0.518401 12.2019 0.256383 12.1865 0 12.1557C1.45284 13.1091 3.17896 13.6667 5.03187 13.6667C11.0705 13.6667 14.3715 8.5385 14.3715 4.09021C14.3715 3.94382 14.3687 3.79744 14.3631 3.65395C15.0045 3.17917 15.5614 2.5869 16 1.9118Z" fill="#151515"/>
</svg>

<svg width="16" height="14" fill="none" xmlns="http://www.w3.org/2000/svg"><path fill-rule="evenodd" clip-rule="evenodd" d="M16 1.912a6.412 6.412 0 0 1-1.885.53A3.359 3.359 0 0 0 15.56.58a6.465 6.465 0 0 1-2.086.816A3.237 3.237 0 0 0 11.077.333C9.265.333 7.796 1.841 7.796 3.7c0 .264.028.52.084.767-2.728-.14-5.146-1.48-6.766-3.518A3.427 3.427 0 0 0 .67 2.642c0 1.167.579 2.197 1.46 2.801a3.223 3.223 0 0 1-1.488-.42v.042c0 1.631 1.132 2.992 2.635 3.3a3.189 3.189 0 0 1-1.483.059c.418 1.337 1.63 2.31 3.066 2.336A6.481 6.481 0 0 1 0 12.156a9.14 9.14 0 0 0 5.032 1.51c6.038 0 9.34-5.127 9.34-9.576 0-.146-.003-.293-.009-.436A6.738 6.738 0 0 0 16 1.912Z" fill="#151515"/></svg>
